dist/svg/task-o.svg

<!-- Generated by Trend Micro Style Portal -->
<svg version="1.1" xmlns="http://www.w3.org/2000/svg" width="16" height="16" viewBox="0 0 16 16">
  <title>task-o</title>
  <path fill="rgb(34,34,34)" d="M14 1h-2v-1h-8v1h-2c-0.552 0-1 0.448-1 1v0 13c0 0.552 0.448 1 1 1v0h12c0.552 0 1-0.448 1-1v0-13c0-0.552-0.448-1-1-1v0zM5 1h6v1h-6v-1zM14 15h-12v-13h2v1h8v-1h2v13zM9 7h4v1h-4v-1zM9 11h4v1h-4v-1zM7.67 4.63l0.7 0.7-3.37 3.38-2-2 0.7-0.71 1.3 1.29zM7.67 8.63l0.7 0.7-3.37 3.38-2-2 0.7-0.71 1.3 1.29z"></path>
</svg>

<svg width="16" height="16" viewBox="0 0 16 16" fill="rgb(34, 34, 34)" xmlns="http://www.w3.org/2000/svg"><title>task-o</title><path d="M14 1H12V0H4V1H2C1.448 1 1 1.448 1 2V15C1 15.552 1.448 16 2 16H14C14.552 16 15 15.552 15 15V2C15 1.448 14.552 1 14 1ZM5 1H11V2H5V1ZM14 15H2V2H4V3H12V2H14V15ZM9 7H13V8H9V7ZM9 11H13V12H9V11ZM7.67 4.63L8.37 5.33L5 8.71L3 6.71L3.7 6L5 7.29L7.67 4.63ZM7.67 8.63L8.37 9.33L5 12.71L3 10.71L3.7 10L5 11.29L7.67 8.63Z" fill="rgb(34, 34, 34)" fill-opacity="1.00"/></svg>
